docs/img/icons/form/div.svg

<svg width="37" height="33" viewBox="0 0 37 33" fill="none" xmlns="http://www.w3.org/2000/svg">
<path d="M8.82202 11.7982C8.34709 11.6107 7.82859 11.6255 7.37994 11.8395C6.93128 12.0534 6.58897 12.449 6.42788 12.9398L4.07578 20.182C3.93355 20.616 3.94344 21.0952 4.10371 21.5356C4.26399 21.9759 4.56442 22.3493 4.95235 22.5904L11.4094 26.6263C11.6266 26.7636 11.8658 26.8554 12.1132 26.8965C12.3605 26.9377 12.6111 26.9274 12.8506 26.8662C13.09 26.8049 13.3137 26.694 13.5086 26.5398C13.7035 26.3856 13.8658 26.1912 13.9862 25.9676C14.1067 25.7441 14.1829 25.4958 14.2104 25.2372C14.238 24.9785 14.2163 24.7146 14.1467 24.4605C14.0771 24.2065 13.961 23.9673 13.8049 23.7567C13.6488 23.5461 13.456 23.3684 13.2374 23.2336L8.15817 20.0599L10.0091 14.3638C10.1691 13.8722 10.1339 13.3258 9.91125 12.8446C9.68865 12.3635 9.29686 11.9871 8.82202 11.7982Z" fill="#00C35B"/>
<path d="M16.2133 4.39715C15.722 4.47127 15.2861 4.74639 14.9992 5.16337C14.7123 5.58034 14.5973 6.10588 14.679 6.62701L17.9969 26.7064C18.0393 26.9651 18.1296 27.2146 18.2626 27.4405C18.3956 27.6664 18.5687 27.8643 18.772 28.0229C18.9753 28.1814 19.2047 28.2975 19.4471 28.3644C19.6895 28.4314 19.9401 28.4478 20.1846 28.4129C20.308 28.3964 20.429 28.3663 20.5455 28.3231C20.9521 28.1743 21.2913 27.8798 21.5052 27.4897C21.7192 27.0996 21.7947 26.6379 21.719 26.1833L18.4011 6.10378C18.3587 5.84507 18.2684 5.59559 18.1354 5.36965C18.0024 5.14371 17.8293 4.94577 17.626 4.7872C17.4227 4.62862 17.1933 4.51253 16.9509 4.4456C16.7084 4.37866 16.4578 4.3622 16.2133 4.39715Z" fill="#00C35B"/>
<path d="M31.446 10.2201L24.989 6.18416C24.7717 6.04694 24.5325 5.95511 24.2852 5.91395C24.0378 5.87279 23.7872 5.88311 23.5478 5.94433C23.3083 6.00555 23.0847 6.11645 22.8898 6.27065C22.6949 6.42486 22.5325 6.61933 22.4121 6.84289C22.2916 7.06644 22.2154 7.31468 22.1879 7.57331C22.1604 7.83195 22.182 8.0959 22.2516 8.34997C22.3212 8.60404 22.4374 8.84323 22.5934 9.05379C22.7495 9.26435 22.9424 9.44212 23.161 9.57689L28.2402 12.7507L26.3892 18.4468C26.3084 18.6905 26.2749 18.9507 26.2907 19.2123C26.3065 19.4739 26.3713 19.7318 26.4813 19.9712C26.5913 20.2106 26.7444 20.4267 26.9317 20.6071C27.1191 20.7875 27.337 20.9287 27.5729 21.0225C27.8089 21.1164 28.0583 21.161 28.3067 21.1538C28.5551 21.1467 28.7977 21.0879 29.0205 20.9809C29.2433 20.8738 29.4419 20.7207 29.6049 20.5301C29.7679 20.3396 29.8921 20.1155 29.9704 19.8708L32.3225 12.6285C32.4648 12.1945 32.4549 11.7153 32.2946 11.2749C32.1343 10.8346 31.8339 10.4612 31.446 10.2201Z" fill="#00C35B"/>
</svg>

<svg width="37" height="33" fill="none" xmlns="http://www.w3.org/2000/svg"><path d="M8.822 11.798a1.8 1.8 0 00-1.442.041c-.449.214-.791.61-.952 1.1l-2.352 7.243c-.142.434-.133.913.028 1.354.16.44.46.813.848 1.054l6.457 4.036c.218.138.457.23.704.27a1.765 1.765 0 001.395-.357 1.84 1.84 0 00.478-.571 1.98 1.98 0 00.224-.73 2.127 2.127 0 00-.405-1.48 2.043 2.043 0 00-.568-.524L8.158 20.06l1.851-5.696a2.091 2.091 0 00-.098-1.52 2.045 2.045 0 00-1.089-1.046zm7.391-7.401a1.8 1.8 0 00-1.214.766 2.028 2.028 0 00-.32 1.464l3.318 20.08a2.112 2.112 0 00.775 1.316c.203.158.433.274.675.341a1.807 1.807 0 001.099-.04c.406-.15.745-.444.96-.834.213-.39.289-.852.213-1.307l-3.318-20.08a2.127 2.127 0 00-.266-.733 2.07 2.07 0 00-.509-.583 1.938 1.938 0 00-.675-.341 1.808 1.808 0 00-.738-.049zm15.233 5.823l-6.457-4.036a1.905 1.905 0 00-.704-.27 1.763 1.763 0 00-1.395.357 1.841 1.841 0 00-.478.572 1.98 1.98 0 00-.224.73 2.128 2.128 0 00.405 1.48c.157.211.35.39.568.524l5.08 3.174-1.852 5.696c-.08.244-.114.504-.098.765a2.127 2.127 0 00.64 1.395c.188.18.406.322.642.416.236.093.485.138.734.13a1.763 1.763 0 001.298-.623c.163-.19.287-.415.365-.66l2.352-7.242a2.077 2.077 0 00-.027-1.353 2.078 2.078 0 00-.849-1.055z" fill="#00C35B"/></svg>
